speaky-school/img/figures-bottom.svg

<svg width="345" height="250" viewBox="0 0 345 250" fill="none" xmlns="http://www.w3.org/2000/svg">
<path fill-rule="evenodd" clip-rule="evenodd" d="M324.166 0H315.833V14.9407L305.269 4.37624L299.376 10.2688L309.94 20.8332H295V29.1665H309.941L299.376 39.7316L304.645 45.0001L299.376 50.2688L309.94 60.8332H295V69.1665H309.941L299.376 79.7316L304.645 85.0001L299.376 90.2688L309.94 100.833H295V109.167H309.941L299.376 119.732L305.269 125.624L315.833 115.06V130H324.166V115.059L334.731 125.624L340.624 119.732L330.059 109.167H345V100.833H330.06L340.624 90.2688L335.355 85.0001L340.624 79.7316L330.059 69.1665H345V60.8332H330.06L340.624 50.2688L335.355 45.0001L340.624 39.7316L330.059 29.1665H345V20.8332H330.06L340.624 10.2688L334.731 4.37624L324.166 14.9414V0ZM334.107 85.0003L324.166 75.0592V80V90V94.9414L334.107 85.0003ZM315.833 80V75.0598L305.893 85.0003L315.833 94.9407V90V80ZM315.833 54.9407L305.893 45.0003L315.833 35.0598V40V50V54.9407ZM324.166 50V40V35.0592L334.107 45.0003L324.166 54.9414V50Z" fill="#038192"/>
<rect y="200" width="107" height="50" rx="25" fill="#FE7167"/>
<rect x="2.5" y="152.5" width="102" height="45" rx="22.5" stroke="#FFCC1A" stroke-width="5"/>
<rect x="107" y="150" width="50" height="50" rx="25" fill="#FFCC1A"/>
<path d="M107 225C107 228.283 107.647 231.534 108.903 234.567C110.159 237.6 112.001 240.356 114.322 242.678C116.644 244.999 119.4 246.841 122.433 248.097C125.466 249.353 128.717 250 132 250C135.283 250 138.534 249.353 141.567 248.097C144.6 246.841 147.356 244.999 149.678 242.678C151.999 240.356 153.841 237.6 155.097 234.567C156.353 231.534 157 228.283 157 225L141.201 225C141.201 226.208 140.963 227.405 140.5 228.521C140.038 229.637 139.36 230.652 138.506 231.506C137.652 232.36 136.637 233.038 135.521 233.5C134.405 233.963 133.208 234.201 132 234.201C130.792 234.201 129.595 233.963 128.479 233.5C127.363 233.038 126.348 232.36 125.494 231.506C124.64 230.652 123.962 229.637 123.5 228.521C123.037 227.405 122.799 226.208 122.799 225H107Z" fill="#038192"/>
</svg>

<svg width="345" height="250" fill="none" xmlns="http://www.w3.org/2000/svg"><path fill-rule="evenodd" clip-rule="evenodd" d="M324.166 0h-8.333v14.94L305.269 4.377l-5.893 5.893 10.564 10.564H295v8.334h14.941l-10.565 10.565L304.645 45l-5.269 5.269 10.564 10.564H295v8.334h14.941l-10.565 10.565L304.645 85l-5.269 5.269 10.564 10.564H295v8.334h14.941l-10.565 10.565 5.893 5.892 10.564-10.564V130h8.333v-14.941l10.565 10.565 5.893-5.892-10.565-10.565H345v-8.334h-14.94l10.564-10.564L335.355 85l5.269-5.268-10.565-10.566H345v-8.333h-14.94l10.564-10.564L335.355 45l5.269-5.268-10.565-10.566H345v-8.333h-14.94l10.564-10.564-5.893-5.893-10.565 10.565V0zm9.941 85l-9.941-9.94V94.94l9.941-9.94zm-18.274-5v-4.94l-9.94 9.94 9.94 9.94V80zm0-25.06l-9.94-9.94 9.94-9.94V54.94zm8.333-4.94V35.06l9.941 9.94-9.941 9.941V50z" fill="#038192"/><rect y="200" width="107" height="50" rx="25" fill="#FE7167"/><rect x="2.5" y="152.5" width="102" height="45" rx="22.5" stroke="#FFCC1A" stroke-width="5"/><rect x="107" y="150" width="50" height="50" rx="25" fill="#FFCC1A"/><path d="M107 225a25.006 25.006 0 0 0 7.322 17.678A25.01 25.01 0 0 0 132 250a25.006 25.006 0 0 0 17.678-7.322A25.01 25.01 0 0 0 157 225h-15.799a9.199 9.199 0 0 1-17.701 3.521 9.19 9.19 0 0 1-.701-3.521H107z" fill="#038192"/></svg>
